images/earrings.svg

<?xml version="1.0" encoding="UTF-8" standalone="no"?>
<!-- Created with Inkscape (http://www.inkscape.org/) -->

<svg
   width="187.8mm"
   height="187.85mm"
   version="1.1"
   viewBox="0 0 187.8 187.85"
   xml:space="preserve"
   id="svg6"
   sodipodi:docname="earrings.svg"
   inkscape:version="1.3.2 (091e20e, 2023-11-25, custom)"
   xmlns:inkscape="http://www.inkscape.org/namespaces/inkscape"
   xmlns:sodipodi="http://sodipodi.sourceforge.net/DTD/sodipodi-0.dtd"
   xmlns="http://www.w3.org/2000/svg"
   xmlns:svg="http://www.w3.org/2000/svg"><defs
     id="defs6" /><sodipodi:namedview
     id="namedview6"
     pagecolor="#ffffff"
     bordercolor="#666666"
     borderopacity="1.0"
     inkscape:showpageshadow="2"
     inkscape:pageopacity="0.0"
     inkscape:pagecheckerboard="0"
     inkscape:deskcolor="#d1d1d1"
     inkscape:document-units="mm"
     inkscape:zoom="1.1323919"
     inkscape:cx="221.65472"
     inkscape:cy="349.26072"
     inkscape:window-width="2560"
     inkscape:window-height="1351"
     inkscape:window-x="-9"
     inkscape:window-y="-9"
     inkscape:window-maximized="1"
     inkscape:current-layer="g6" /><g
     transform="translate(-10.875 -54.762)"
     id="g6"><rect
       x="15.844"
       y="59.732"
       width="177.86"
       height="177.91"
       ry="15.346"
       stroke="#fff"
       stroke-linecap="round"
       stroke-width="9.9388"
       id="rect1" /><g
       id="g7"
       transform="matrix(0.75287637,0,0,1.0760382,25.768977,-10.827317)"
       style="display:inline;opacity:1;fill:#ffffff;fill-opacity:1"><g
         transform="translate(65.523,-28.129)"
         fill="#f9f9f9"
         stroke-width="0"
         id="g5"
         style="fill:#ffffff;fill-opacity:1"><rect
           transform="rotate(45.000001)"
           x="134.56125"
           y="25.884712"
           width="18.440157"
           height="18.440157"
           id="rect3"
           style="opacity:1;fill:#ffffff;fill-opacity:1;stroke-width:0" /><path
           d="m 87.052214,145.44413 -9.909761,9.73591 -9.909761,-9.73591 -9.909762,9.73591 19.819523,19.47181 19.819523,-19.47181 z"
           id="path4"
           style="opacity:1;fill:#ffffff;fill-opacity:1;stroke-width:0" /><path
           d="M 96.799925,172.11389 76.979755,190.38436 57.16088,172.11389 43.599514,184.12602 76.979755,214.72403 110.36001,184.12602 Z"
           id="path5"
           style="opacity:1;fill:#ffffff;fill-opacity:1;stroke-width:0"
           sodipodi:nodetypes="ccccccc" /></g><g
         transform="matrix(0.95865627,0,0,0.95865075,-5.9806422,-2.3291444)"
         fill="#f9f9f9"
         stroke-width="0"
         id="g5-9"
         style="display:inline;opacity:1;fill:#ffffff;fill-opacity:1"
         inkscape:label="g3"><rect
           transform="rotate(45.000001)"
           x="134.56125"
           y="25.884712"
           width="18.440157"
           height="18.440157"
           id="rect3-4"
           style="opacity:1;fill:#ffffff;fill-opacity:1;stroke-width:0"
           inkscape:label="rect4" /><path
           d="M 86.73884,147.18382 76.54306,157.20073 66.34728,147.18382 56.151499,157.20073 76.54306,177.23454 96.934621,157.20073 Z"
           id="path4-5"
           style="opacity:1;fill:#ffffff;fill-opacity:1;stroke-width:0"
           inkscape:label="path6" /><path
           d="M 96.958577,174.20441 76.795145,193.01994 56.63303,174.20441 42.836797,186.5749 76.795145,218.08575 110.75351,186.5749 Z"
           id="path5-9"
           style="opacity:1;fill:#ffffff;fill-opacity:1;stroke-width:0"
           sodipodi:nodetypes="ccccccc"
           inkscape:label="path7" /></g></g></g></svg>

<?xml version="1.0" encoding="UTF-8"?>
<svg width="187.8mm" height="187.85mm" version="1.1" viewBox="0 0 187.8 187.85" xml:space="preserve" xmlns="http://www.w3.org/2000/svg"><g transform="translate(-10.875 -54.762)"><rect x="15.844" y="59.732" width="177.86" height="177.91" ry="15.346" stroke="#fff" stroke-linecap="round" stroke-width="9.9388"/><g transform="matrix(.75288 0 0 1.076 25.769 -10.827)" fill="#fff" stroke-width="0"><g transform="translate(65.523,-28.129)"><rect transform="rotate(45)" x="134.56" y="25.885" width="18.44" height="18.44"/><path d="m87.052 145.44-9.9098 9.7359-9.9098-9.7359-9.9098 9.7359 19.82 19.472 19.82-19.472z"/><path d="m96.8 172.11-19.82 18.27-19.819-18.27-13.561 12.012 33.38 30.598 33.38-30.598z"/></g><g transform="matrix(.95866 0 0 .95865 -5.9806 -2.3291)"><rect transform="rotate(45)" x="134.56" y="25.885" width="18.44" height="18.44"/><path d="m86.739 147.18-10.196 10.017-10.196-10.017-10.196 10.017 20.392 20.034 20.392-20.034z"/><path d="m96.959 174.2-20.163 18.816-20.162-18.816-13.796 12.37 33.958 31.511 33.958-31.511z"/></g></g></g></svg>
